X:4
T:4 The First of June
C:Welch MS
I:abc2nwc
M:C
L:1/8
K:C
gf|e2c2c2de|f2d2d2ef|agfe fedc|BcdB G2gf|
e2c2c2de|f2d2d2ef|g2a2dcde|c2c2c2:|
ef|.g2.g2.a2.a2|.f2.f2.g2.g2|.e2.e2.f2.f2|dcde d2ef|
.g2.g2.a2.a2|.f2.f2.g2.g2|.e2.e2.f2.f2|edcB c2:|


